src/images_karasa_jaga_svg/cmd/32/underline.svg

<svg height="32" viewBox="0 0 8.4666665 8.466667" width="32" xmlns="http://www.w3.org/2000/svg" xmlns:xlink="http://www.w3.org/1999/xlink"><linearGradient id="a" gradientUnits="userSpaceOnUse" x1="-39.547199" x2="-39.824882" y1="340.435856" y2="303.622436"><stop offset="0" stop-color="#555"/><stop offset="1"/></linearGradient><linearGradient id="b" gradientUnits="userSpaceOnUse" x1="17.261626" x2="17.46966" y1=".265026" y2="15.384074"><stop offset="0" stop-color="#3b3e22"/><stop offset="1" stop-color="#454545" stop-opacity="0"/></linearGradient><g transform="matrix(.25 0 0 .25 0 -65.78333)"><text style="font-weight:bold;font-size:34.862232;font-family:FreeSerif;letter-spacing:0;word-spacing:0;stroke-width:.871597;fill:url(#a)" transform="scale(1.0644383 .93946264)" x="3.3631" y="307.11783"><tspan fill="url(#a)" font-family="FreeSerif" font-size="34.799263" font-weight="normal" stroke-width=".871597" x="3.3631" y="307.11783">U</tspan></text><path d="m25.955078 16.503906c.477304.271484 1.143035.36568 1.550781.722656 2.546694 2.134338 3.054688 5.650788 3.054688 10.416016v29.675781a198.21428 89.642858 0 0 0 9.619141 1.080079v-30.75586c0-4.692094.442479-8.118187 2.886718-10.27539.47712-.421115 1.254245-.552151 1.830078-.863282zm63.115234 0c1.177044.614249 2.447906 1.136513 3.248047 2.111328 2.446345 2.893078 3.0625 7.345724 3.0625 13.722657v27.447265a198.21428 89.642858 0 0 0 1.5-.08398v-27.363285c0-6.44538.432439-10.76388 2.767579-13.597657.850402-1.032037 2.202032-1.615087 3.521482-2.236328z" fill="url(#b)" transform="matrix(.26458333 0 0 .26458333 0 263.13332)"/><rect fill="#0e0e0e" height="2.116674" rx=".472075" ry=".9247" width="27.516666" x="3.175" y="291.70831"/></g></svg>

<?xml version="1.0" encoding="UTF-8" standalone="no"?>
<!-- Created with Inkscape (http://www.inkscape.org/) -->

<svg
   xmlns:dc="http://purl.org/dc/elements/1.1/"
   xmlns:cc="http://creativecommons.org/ns#"
   xmlns:rdf="http://www.w3.org/1999/02/22-rdf-syntax-ns#"
   xmlns:svg="http://www.w3.org/2000/svg"
   xmlns="http://www.w3.org/2000/svg"
   xmlns:xlink="http://www.w3.org/1999/xlink"
   xmlns:sodipodi="http://sodipodi.sourceforge.net/DTD/sodipodi-0.dtd"
   xmlns:inkscape="http://www.inkscape.org/namespaces/inkscape"
   width="128"
   height="128"
   viewBox="0 0 33.866666 33.866668"
   version="1.1"
   id="svg3248"
   inkscape:version="0.92.2 (unknown)"
   sodipodi:docname="underline.svg"
   inkscape:export-filename="/home/rizmut/Dokumen/Rizmut/Github/libreoffice-style-karasa-jaga/build/images_karasa_jaga/cmd/32/underline.png"
   inkscape:export-xdpi="24"
   inkscape:export-ydpi="24">
  <defs
     id="defs3242">
    <linearGradient
       id="b"
       gradientUnits="userSpaceOnUse"
       x1="35.404884"
       x2="54.657333"
       y1="7.3243251"
       y2="81.814293"
       gradientTransform="scale(0.26458333)">
      <stop
         offset="0"
         stop-color="#3b3e22"
         id="stop7" />
      <stop
         offset="1"
         stop-color="#454545"
         stop-opacity="0"
         id="stop9" />
    </linearGradient>
    <linearGradient
       id="a"
       gradientUnits="userSpaceOnUse"
       x1="18.981823"
       x2="20.202982"
       y1="294.72055"
       y2="266.63391"
       gradientTransform="translate(-55.505501,23.671696)">
      <stop
         offset="0"
         stop-color="#555"
         id="stop2" />
      <stop
         offset="1"
         id="stop4" />
    </linearGradient>
    <linearGradient
       id="linearGradient1727"
       gradientUnits="userSpaceOnUse"
       x1="18.981823"
       x2="20.202982"
       y1="294.72055"
       y2="266.63391"
       gradientTransform="translate(3.7611663,-263.57652)">
      <stop
         offset="0"
         stop-color="#555"
         id="stop1723" />
      <stop
         offset="1"
         id="stop1725" />
    </linearGradient>
    <linearGradient
       inkscape:collect="always"
       xlink:href="#a"
       id="linearGradient854"
       x1="15.958302"
       y1="316.76416"
       x2="15.680619"
       y2="279.95074"
       gradientUnits="userSpaceOnUse" />
    <linearGradient
       inkscape:collect="always"
       xlink:href="#b"
       id="linearGradient862"
       x1="65.240791"
       y1="1.0016737"
       x2="66.027061"
       y2="58.144531"
       gradientUnits="userSpaceOnUse" />
  </defs>
  <sodipodi:namedview
     id="base"
     pagecolor="#ffffff"
     bordercolor="#666666"
     borderopacity="1.0"
     inkscape:pageopacity="0.0"
     inkscape:pageshadow="2"
     inkscape:zoom="3.959798"
     inkscape:cx="16.347114"
     inkscape:cy="61.74231"
     inkscape:document-units="mm"
     inkscape:current-layer="layer1"
     showgrid="true"
     units="px"
     inkscape:window-width="1366"
     inkscape:window-height="706"
     inkscape:window-x="0"
     inkscape:window-y="0"
     inkscape:window-maximized="1"
     showguides="false"
     inkscape:guide-bbox="true">
    <sodipodi:guide
       position="-48.56994,-6.8035717"
       orientation="-0.70710678,0.70710678"
       id="guide864"
       inkscape:locked="false" />
    <inkscape:grid
       type="xygrid"
       id="grid1421"
       spacingx="1.0583333"
       spacingy="1.0583333"
       empspacing="2" />
  </sodipodi:namedview>
  <metadata
     id="metadata3245">
    <rdf:RDF>
      <cc:Work
         rdf:about="">
        <dc:format>image/svg+xml</dc:format>
        <dc:type
           rdf:resource="http://purl.org/dc/dcmitype/StillImage" />
        <dc:title></dc:title>
      </cc:Work>
    </rdf:RDF>
  </metadata>
  <g
     inkscape:label="Layer 1"
     inkscape:groupmode="layer"
     id="layer1"
     transform="translate(0,-263.13332)">
    <text
       xml:space="preserve"
       style="font-style:normal;font-variant:normal;font-weight:bold;font-stretch:normal;font-size:34.86223221px;line-height:1.25;font-family:FreeSerif;-inkscape-font-specification:'FreeSerif, Bold';font-variant-ligatures:normal;font-variant-caps:normal;font-variant-numeric:normal;font-feature-settings:normal;text-align:start;letter-spacing:0px;word-spacing:0px;writing-mode:lr-tb;text-anchor:start;fill:url(#linearGradient854);fill-opacity:1;stroke:none;stroke-width:0.87159711"
       x="3.3630996"
       y="307.11783"
       id="text3806"
       transform="scale(1.0644383,0.93946264)"><tspan
         sodipodi:role="line"
         id="tspan3804"
         x="3.3630996"
         y="307.11783"
         style="font-style:normal;font-variant:normal;font-weight:normal;font-stretch:normal;font-size:34.799263px;font-family:FreeSerif;-inkscape-font-specification:'FreeSerif, Bold';font-variant-ligatures:normal;font-variant-caps:normal;font-variant-numeric:normal;font-feature-settings:normal;text-align:start;writing-mode:lr-tb;text-anchor:start;stroke-width:0.87159711;fill-opacity:1;fill:url(#linearGradient854)">U</tspan></text>
    <path
       style="opacity:1;fill:url(#linearGradient862);fill-opacity:1;stroke:none;stroke-width:0.99999994;stroke-opacity:1"
       d="M 25.955078 16.503906 C 26.432382 16.77539 27.098113 16.869586 27.505859 17.226562 C 30.052553 19.3609 30.560547 22.87735 30.560547 27.642578 L 30.560547 57.318359 A 198.21428 89.642858 0 0 0 40.179688 58.398438 L 40.179688 27.642578 C 40.179688 22.950484 40.622167 19.524391 43.066406 17.367188 C 43.543526 16.946073 44.320651 16.815037 44.896484 16.503906 L 25.955078 16.503906 z M 89.070312 16.503906 C 90.247356 17.118155 91.518218 17.640419 92.318359 18.615234 C 94.764704 21.508312 95.380859 25.960958 95.380859 32.337891 L 95.380859 59.785156 A 198.21428 89.642858 0 0 0 96.880859 59.701172 L 96.880859 32.337891 C 96.880859 25.892511 97.313298 21.574011 99.648438 18.740234 C 100.49884 17.708197 101.85047 17.125147 103.16992 16.503906 L 89.070312 16.503906 z "
       transform="matrix(0.26458333,0,0,0.26458333,0,263.13332)"
       id="path3933" />
    <rect
       style="fill:#0e0e0e;stroke-width:0.99999994"
       id="rect13"
       y="291.70831"
       x="3.175"
       width="27.516666"
       ry="0.92469996"
       rx="0.47207493"
       height="2.1166739" />
  </g>
</svg>
